X: 32234
T: Phyllis' Birthday
R: reel
M: 4/4
K: Gmajor
BG~G2 Bded|B2dB BAGE|DEGA Bd~d2|edBG A2GA|
BG~G2 Bded|B2dB BAGE|DEGA Bd~d2|1 edBA G3A:|2 edBA G3e||
|:d3g bgaf|gedc BG~G2|dega b3g|a2ab a2ge|
dega bgaf|gedc BGGE|DEGA Bd~d2|1 edBA G3e:|2 edBA G3A||

